Newaita-dark/actions/24/kdenlive-object-height.svg

<svg height="24" viewBox="0 0 24 24" width="24" xmlns="http://www.w3.org/2000/svg"><g fill="#e0e0e0"><path d="m7.933594 16.066406c0-.402344.246094-.765625.617187-.914062.375-.152344.800781-.0625 1.082031.226562l2.277344 2.277344 2.277344-2.277344c.25-.257812.617188-.359375.960938-.265625.34375.089844.613281.359375.703124.703125.089844.34375-.011718.710938-.265624.957032l-2.976563 2.976562c-.386719.386719-1.011719.386719-1.398437 0l-2.976563-2.976562c-.191406-.183594-.300781-.441407-.300781-.707032zm0 0"/><path d="m7.933594 8.125c0 .402344.246094.761719.617187.914062.375.152344.800781.0625 1.082031-.226562l2.277344-2.277344 2.277344 2.277344c.25.253906.617188.355469.960938.265625s.613281-.359375.703124-.703125c.089844-.34375-.011718-.710938-.265624-.960938l-2.976563-2.976562c-.386719-.386719-1.011719-.386719-1.398437 0l-2.976563 2.976562c-.191406.1875-.300781.441407-.300781.710938zm0 0"/></g></svg>

<svg xmlns="http://www.w3.org/2000/svg" xmlns:xlink="http://www.w3.org/1999/xlink" width="24px" height="24px" viewBox="0 0 24 24" version="1.1">
<g id="surface1">
     <defs>
  <style id="current-color-scheme" type="text/css">
   .ColorScheme-Text { color:#eeeeee; } .ColorScheme-Highlight { color:#424242; }
  </style>
 </defs>
<path style="fill:currentColor" class="ColorScheme-Text" d="M 7.933594 16.066406 C 7.933594 15.664062 8.179688 15.300781 8.550781 15.152344 C 8.925781 15 9.351562 15.089844 9.632812 15.378906 L 11.910156 17.65625 L 14.1875 15.378906 C 14.4375 15.121094 14.804688 15.019531 15.148438 15.113281 C 15.492188 15.203125 15.761719 15.472656 15.851562 15.816406 C 15.941406 16.160156 15.839844 16.527344 15.585938 16.773438 L 12.609375 19.75 C 12.222656 20.136719 11.597656 20.136719 11.210938 19.75 L 8.234375 16.773438 C 8.042969 16.589844 7.933594 16.332031 7.933594 16.066406 Z M 7.933594 16.066406 "/>
     <defs>
  <style id="current-color-scheme" type="text/css">
   .ColorScheme-Text { color:#eeeeee; } .ColorScheme-Highlight { color:#424242; }
  </style>
 </defs>
<path style="fill:currentColor" class="ColorScheme-Text" d="M 7.933594 8.125 C 7.933594 8.527344 8.179688 8.886719 8.550781 9.039062 C 8.925781 9.191406 9.351562 9.101562 9.632812 8.8125 L 11.910156 6.535156 L 14.1875 8.8125 C 14.4375 9.066406 14.804688 9.167969 15.148438 9.078125 C 15.492188 8.988281 15.761719 8.71875 15.851562 8.375 C 15.941406 8.03125 15.839844 7.664062 15.585938 7.414062 L 12.609375 4.4375 C 12.222656 4.050781 11.597656 4.050781 11.210938 4.4375 L 8.234375 7.414062 C 8.042969 7.601562 7.933594 7.855469 7.933594 8.125 Z M 7.933594 8.125 "/>
</g>
</svg>
